X: 25346
T: Many A Wild Night
R: polka
M: 2/4
K: Dmajor
|:Ad dB|AF FE/F/|GB BA|GE E2|
Ad dB|AF FE/F/|GB BA|D2 D2:|
|:d>e fa|ge e2|Ac eg|fd dA|
d>e fa|ge ed|ce ba|1 d2 dA:|2 d2 dB||

